X: 36841
T: Shipley, The
R: jig
M: 6/8
K: Dmajor
AdA fAe|GBG A3|DFA dcd|efg fed|
AdA fAe|dcB A3|GBG dGe|Afe d3:|
|:dfd adf|gfe f3|GBd FAd|Egf edc|
dfd adf|gfe f3|AdA eAf|Age d3:|

